icon/cg/attachment.svg

<svg viewBox="0 0 24 24" fill="none" xmlns="http://www.w3.org/2000/svg" height="1em" width="1em">
  <path d="M14 0C16.7614 0 19 2.23858 19 5V17C19 20.866 15.866 24 12 24C8.13401 24 5 20.866 5 17V9H7V17C7 19.7614 9.23858 22 12 22C14.7614 22 17 19.7614 17 17V5C17 3.34315 15.6569 2 14 2C12.3431 2 11 3.34315 11 5V17C11 17.5523 11.4477 18 12 18C12.5523 18 13 17.5523 13 17V6H15V17C15 18.6569 13.6569 20 12 20C10.3431 20 9 18.6569 9 17V5C9 2.23858 11.2386 0 14 0Z" fill="currentColor"/>
</svg>

<svg width="24" height="24" fill="none" xmlns="http://www.w3.org/2000/svg"><path d="M14 0a5 5 0 0 1 5 5v12a7 7 0 1 1-14 0V9h2v8a5 5 0 0 0 10 0V5a3 3 0 1 0-6 0v12a1 1 0 1 0 2 0V6h2v11a3 3 0 1 1-6 0V5a5 5 0 0 1 5-5Z" fill="currentColor"/></svg>
